packages/ui-icons/svg/Line/stats.svg

<svg viewBox="0 0 1920 1920" version="1.1" xmlns="http://www.w3.org/2000/svg">
    <path d="M1581.17647,1734.74871 L1807.05882,1734.74871 L1807.05882,831.219294 L1581.17647,831.219294 L1581.17647,1734.74871 Z M1016.47059,1734.74871 L1242.35294,1734.74871 L1242.35294,1282.984 L1016.47059,1282.984 L1016.47059,1734.74871 Z M451.764706,1734.74871 L677.647059,1734.74871 L677.647059,1057.10165 L451.764706,1057.10165 L451.764706,1734.74871 Z M112.941176,153.572235 L112.941176,1734.74871 L338.823529,1734.74871 L338.823529,944.160471 L790.588235,944.160471 L790.588235,1734.74871 L903.529412,1734.74871 L903.529412,1170.04282 L1355.29412,1170.04282 L1355.29412,1734.74871 L1468.23529,1734.74871 L1468.23529,718.278118 L1920,718.278118 L1920,1847.68988 L0,1847.68988 L0,153.572235 L112.941176,153.572235 Z M1586.60894,73 L1688.70776,121.112941 C1681.70541,136.247059 1511.95482,491.785882 1248.35012,557.404706 C1138.68424,584.736471 1030.03482,559.098824 926.128941,481.056471 C805.733647,390.703529 706.006588,364.501176 629.997176,402.449412 C496.274824,469.197647 451.776,714.844706 451.776,774.703529 L451.776,774.703529 L338.834824,774.703529 C338.834824,680.510588 395.870118,393.188235 579.512471,301.367059 C697.197176,242.750588 836.566588,272.792941 993.893647,390.703529 C1070.24188,448.077647 1144.44424,466.825882 1220.67953,447.851765 C1432.33129,395.334118 1585.02776,76.2752941 1586.60894,73 L1586.60894,73 Z" stroke="none" stroke-width="1" fill-rule="evenodd"/>
</svg>

<svg viewBox="0 0 1920 1920" xmlns="http://www.w3.org/2000/svg">
    <path d="M1581.176 1734.749h225.883v-903.53h-225.883v903.53Zm-564.705 0h225.882v-451.765H1016.47v451.765Zm-564.706 0h225.882v-677.647H451.765v677.647ZM112.94 153.572V1734.75h225.883V944.16h451.764v790.589H903.53v-564.706h451.765v564.706h112.941V718.279H1920v1129.41H0V153.573h112.941ZM1586.61 73l102.099 48.113c-7.003 15.134-176.753 370.673-440.358 436.292-109.666 27.331-218.315 1.694-322.221-76.349-120.395-90.352-220.122-116.555-296.132-78.607-133.722 66.749-178.221 312.396-178.221 372.255H338.835c0-94.193 57.035-381.516 240.677-473.337 117.685-58.616 257.055-28.574 414.382 89.337 76.348 57.374 150.55 76.122 226.786 57.148C1432.33 395.334 1585.028 76.275 1586.609 73Z" fill-rule="evenodd"/>
</svg>
